X: 81
T: Mrs Poer
T: O'Carolan's Concerto
C: Carolan
%R: reel
B: "The Hibernian Muse" p.50
F: http://imslp.org/wiki/The_Hibernian_Muse_%28Various%29
Z: 2015 John Chambers <jc:trillian.mit.edu>
P: No. LXXXI.
M: C|
L: 1/8
K: G
% - - - - - - - - - - - - - - - - - - - - - - - - - - - - -
V: 1
[|\
Tg2g2 Tg3f/e/ | dedc B2d2 | A2d2 G2d2 | efga Tf2d2 |\
g2d'2 bc'd'b | abc'a bc'd'b | c'2e'2 bc'd'b | c'bag f2d2 |
(EG)(EG) [c'2a2][c'2a2] | (DF)(DF) [b2g2][b2g2] | (CE)(CE) [a2e2][a2e2] | {g}f2ef d2{e}dc |\
BcdB ABcA | BcdB cdec | d2g2 {b}a2(a/g/f) | [g4d4B4] G2 |]| Bc |
dcBA G2d2 | F2d2 E2e2 | D2g2 {a}gfed | e2b2 agfe |\
dd'dd' cc'cc' | gbgb fafa | dgdg fgaf | dd'dd' cac'a |
az gz fz ez | dz cz Bz Az | GDB,D GDB,D | acec acec |\
BGdG cBAG | gBdB edcB | ABcd efga gfdf [g4d4B4] |]
% - - - - - - - - - - - - - - - - - - - - - - - - - - - - -
V: 2 clef=bass middle=d
[|\
g2d2 G2z2 | f2d2 g2g2 | f2f2 e2g2 | c'2a2 d'2c'2 |\
b2f2 g2G2 | f2d2 g2G2 | e2c2 g2G2 | c3c d2D2 |
c4 z4 | d4 z4 | c4 z4 | d6 f2 |\
g2G2 f2d2 | G2g2 e2c2 | B2G2 c2d2 | G2 g4 |]| z2 |
f2g2 e2e2 | d2d2 c2c2 | B2c2 d2A2 | c2z2 z2za |\
b2zb a2zd | g2z2 d'2z2 | b2z2 d'2z2 | b2zg a2z2 |
zf' ze' zd' zc' | zb za zg zf | g2z2 G2z2 | a2z2 f2z2 |\
g2B2 c2d2 | B2G2 f2g2 | d2AB cdec | d2D2 G4 |]

%%sep 2 1 500
%%sep 1 1 500

